X: 3443
T: Ridmarsch 
R: marsch
S: efter Robert Nordström, Lerbo, Södermanland. 
N: Arr. G. Wetter
M: 2/4
L: 1/16
Q: 94
K: D

V: 1 
|: A2A2 (FDFA) | B2B2 A4 | d2>f2 .e.d.c.B | .A.B.A.G .F.E.F.G | 
A2A2 (FD).F.A | .B2.B2 A4 | d2>f2 (ec).A.c | .e2.d2 d4 :| 
|: {fg}.f2.d2 .d2(ef) | .g2.f2 e2>d2 | (cB).c.d e2>f2 | .e.d.c.B A4 | 
{fg}.f2.d2 .d2(ef) | .g2.b2 a2>g2 | (fa)(fd) (eg)(ec) | d4 z4 :|

V: 2 
|: FDFA F2F2 | G2G2 F4 | (FD)FA G2G2 | F2>E2 DCDE | 
(FD)FA F2F2 | G2G2 F4 | (FD)FA G2E2 | G2F2 F4 :|
|: {de}d2B2 B2cd | e2d2 (cBcd) | e2>d2 (cB)cd | efed c2(BE) | 
D2B,2 B,2(CD) | D2D2 C4 | D2(DF) C2(CE) | F2D2 D2z2 :| 

V: 3
K: alto 
|: D,2D,D, D,2D,2 | G,2G,G, D,4 | D,2D,D, D,2D,2 | C,2C,2 D,2D,2 | 
D,2D,D, D,2D,2 | G,2G,G, D,4 | D,2D,D, A,2A,2 | A,2A,A, D2D,2 :|
|:  D,2D,D, D,2D,2 | G,2G,G, A,4 | A,2A,A, A,2A,2 | E,2(^F,G,) A,2A,2 | 
D,2D,D, D,2D,2 | G,2G,G, A,4 | A,2A,A, A,2A,2 | D,2D,2 D,4 :| 

(:musicend:)
(:music:)

